src/assets/img/svg/logo.svg

<?xml version="1.0" encoding="UTF-8"?>
<svg width="47" height="31" fill="none" viewBox="0 0 47 31" xmlns="http://www.w3.org/2000/svg">
<path d="m47 19c0 6.63-5.2581 12-11.75 12h-25.948c-5.1406 0-9.3021-4.25-9.3021-9.5 0-4.54 3.1138-8.34 7.2948-9.28 1.6646-7.01 7.8431-12.22 15.226-12.22 5.3952 0 10.144 2.78 12.964 7.01 6.3842 0.12 11.515 5.44 11.515 11.99z" fill="url(#a)"/>
<path d="m28.781 19h-3.3223v-8c0-0.552-0.4386-1-0.9791-1h-1.9584c-0.5405 0-0.9791 0.448-0.9791 1v8h-3.3223c-0.5288 0-0.7931 0.653-0.4191 1.034l4.8605 4.964c0.4632 0.473 1.2152 0.473 1.6784 0l4.8605-4.964c0.374-0.381 0.1097-1.034-0.4191-1.034z" fill="#fff"/>
<defs>
<linearGradient id="a" x1="13.945" x2="30.064" y1="1.358" y2="31.416" gradientUnits="userSpaceOnUse">
<stop stop-color="#2AA4F4" offset="0"/>
<stop stop-color="#007AD9" offset="1"/>
</linearGradient>
</defs>
</svg>

<svg width="47" height="31" viewBox="0 0 47 31" fill="none" xmlns="http://www.w3.org/2000/svg">
<path d="M47 19C47 25.63 41.7419 31 35.25 31C33.4875 31 11.1037 31 9.30208 31C4.16146 31 0 26.75 0 21.5C0 16.96 3.11375 13.16 7.29479 12.22C8.95937 5.21 15.1379 0 22.5208 0C27.916 0 32.665 2.78 35.485 7.01C41.8692 7.13 47 12.45 47 19Z" fill="url(#paint0_linear_18_13)"/>
<path d="M28.7806 19H25.4583V11C25.4583 10.448 25.0197 10 24.4792 10H22.5208C21.9803 10 21.5417 10.448 21.5417 11V19H18.2194C17.6906 19 17.4263 19.653 17.8003 20.034L22.6608 24.998C23.124 25.471 23.876 25.471 24.3392 24.998L29.1997 20.034C29.5737 19.653 29.3094 19 28.7806 19Z" fill="white"/>
<defs>
<linearGradient id="paint0_linear_18_13" x1="13.9453" y1="1.358" x2="30.0644" y2="31.4156" gradientUnits="userSpaceOnUse">
<stop stop-color="#2AA4F4"/>
<stop offset="1" stop-color="#007AD9"/>
</linearGradient>
</defs>
</svg>
